X:1
T:# / 4 handel: o worship the lord in the beauty (chandos 4.6)
%%score [ 1 2 ] { ( 3 4 7 ) | ( 5 6 ) }
L:1/8
Q:1/4=150
M:3/2
K:Bb
V:1 treble nm="Canto"
V:2 treble-8 nm="Tenore"
V:3 treble nm="Pianoforte"
V:4 treble 
V:7 treble 
V:5 bass 
V:6 bass 
V:1
"^Larghetto" z4 B8 | c8 e4 | %2
w: O|wor- ship,|
"^O worship the Lord in the beauty""^( No. 6 from Chandos Anthem 4.: O come, let us sing unto the Lord)" (d2 e2) c6 B2 | %3
w: wor- * ship the|
 B4 f6 f2 | (f2 B2) e6 f2 | d4 g4- gfed |"^G. F. Handel""^(1685-1759)" c4 f4- fedc | B6 A2 B2 c2 | %8
w: Lord in the|beau- * ty of|ho * * * * *||* \-li * *|
 A4 c6 c2 | (c2 F2) B6 c2 | A4 d4- dcBA | G4 c4- cBAG | F8 f4- | f12 | f2 g2 =e6 f2 | f12 | z12 | %17
w: ness, in the|beau- * ty of|ho * * * * *||||* * * li-|\-ness,||
 z4 f6 f2 | (f2 B2) e6 f2 | d4 g4 gfed | c4 f4- fedc | B4 e4- edcB | A4 d4- dcBA | G4 c4- cBAG | %24
w: in the|beau- * ty of|ho * * * * *|||||
 F4 B8- | B4 A8- | A4 G4 c4 | A4 F4 B4- | B12 | B8 (A3 B) | B8 z4 | z4 c6 c2 | (c2 F2) B6 B2 | %33
w: |||||* li- *|\-ness,|in the|beau- * ty of|
 B4 A8 | G8 F4- | F4 G6 A2 | A4 F8 | G8 B4 |"^«J" (A2 B2) G6 F2 | F8 B4 | B12- | B2 c2 A6 B2 | %42
w: ho *||* * li-|ness, O|wor- ship,|wor- * ship the|Lord, O|wor-|* * ship the|
 B4 d6 d2 | (d2 G2) c6 d2 | B4 e4- edcB | A4 d4- dc=BA | G4 c8- | c4 B8- | B4 A6 G2 | %49
w: Lord in the|beau- * ty of|ho * * * * *|||||
 ^F3 =E D4 z4 | z12 | z12 | z12 | z4 B6 B2 | B4 _A6 B2 | G4 c8- | c4 =B4 c4- | c8 c4 | G12 | %59
w: * li- ness,||||in the|beau- ty of|ho- *||* li-|ness,|
 z4 e6 e2 | e4 d6 e2 | c4 f2 A2 B4- | B12 | B2 c2 A6 B2 | B8 f4 | fedc B4 e4- | edcB A4 d4- | %67
w: in the|beau- ty of|ho- * * *||* * * li-|ness, of|ho * * * * *||
 dcBA G4 c4- | cBAG F4 B4 | A4 z4 z4 | z12 | z12 | z4 d4- dcBA | G4 c4- cBAG | F4 f4- fedc | %75
w: |* * * * * li-|\-ness,|||of * * * *|ho * * * * *||
 BAGF E4 c4- | cBAG F4 B4- | B4 G6 F2 | F8 B4- | B2 c2 A6 B2 | B8 z4 | z12 | z12 | z12 || %84
w: ||||* * * li-|ness.||||
V:2
 z12 | z12 | z12 | z12 | z12 | z12 | z12 | z12 | z12 | z12 | z12 | z12 | z4 F8 | G8- B4 | %14
w: ||||||||||||O|wor- ship,|
 (A2 B2) G6 F2 | F4 c6 c2 | (c2 F2) B6 c2 | A4 d4- dcBA | G4 c4- cBAG | F4 B8- | B4 A8- | %21
w: wor- * ship the|Lord in the|beau- * ty of|ho * * * * *||||
 A4 G6 F2 | F4 f6 f2 | (f2 B2) e6 f2 | d4 g4- gfed | c4 f4- fedc | B4 e8- | e4 d8 | c8 B4- | %29
w: * * li-|\-ness, in the|beau * ty of|ho- * * * * *|||||
 B4 c6 .d2 | d4 f6 f2 | (f2 B2) e6 f2 | d4 g4- gf=ed | c4 f8- | f12 | f4 f4 (=e3 f) | f12 | z12 | %38
w: * * li-|\-ness, in the|beau- * ty of|ho- * * * * *|||* * li- *|ness,||
 z12 | z4 B8 | c8 e4 | (d2 e2) c6 B2 | B12 | z4 a6 a2 | (a2 d2) g6 g2 | g4 f8- | f4 e6 d2 | %47
w: |O|wor- ship|wor- * ship the|Lord|in the|beau- * ty of|ho *|* * li-|
 d4 d6 d2 | G4 c6 c2 | (c4"^L" B3) A G4 | z12 | z12 | z4 e6 e2 | e4 d6 e2 | c4 f8- | f4 e6 f2 | %56
w: ness, in the|beau- ty of|ho- * li- ness,|||in the|beau- ty of|ho- *||
 d8 c4- | c12 | c6 =B2 B4 | z4 c6 c2 | (c2 F2) B6 c2 | A4 F4 d4 | c8 B4- | B2 F2 F4 z4 | z4 f6 f2 | %65
w: ||* li- ness,|in the|beau- * ty of|ho * *||* li- ness,|in the|
 B4 e4 edcB | A4 d4- dcBA | G4 c4- cBAG | F4 d6 e2 | c4 z4 z4 | z12 | z12 | z4 f4- fedc | %73
w: beau- ty of * * *|ho * * * * *||* li *|\-ness,|||of * * * *|
 B4 e4- edcB | A4 d8 | g4- gfed c4 | f4 fedc B4 | e12- | e6 f2 d4- | d2 e2 c6 B2 | B8 z4 | z12 | %82
w: ho * * * * *||||||* * * li-|ness.||
 z12 | z12 || %84
w: ||
V:3
"^Larghetto" z4 B8 | c8 e4 | d4 c8 | B8 f4- | f4 e8 | d8 e4 | c4 f8- | f4 =e8 | f8 c4- | c4 B8 | %10
 A4 d8 | c12 | F4 c8 | G8 B4 | A2 G2 G8 | A4 c8- | c4 B4 d4 | c4 d4 f4- | f4 e8 | d4 g8 | c4 f8 | %21
 B4 e8 | A4 d8 | G4 c8 | B12- | B4 A8- | A4 G4 c4 | A4 B8 | c8 e4 | d2 e2 c6 B2 | B12 | B4 c8- | %32
 c4 B8- | B4 f8 | g8 [fb]4 | a2 b2 g6 f2 | f12 | G8 B4 |"^*y""^i" A4 G4 c4 | c4 B8 | B12- | %41
 B2 c2 A8 | B4 d4- d4 | d4 c8 |"^I" B4 e8 | A4 d8 | G4 c8- | c4 B8- | B4 A6 G2 | ^F4 g8- | g12 | %51
 g2 a2 ^f6 g2 | g8 (z4 | E4) B8 | B4 (_A8 | [FG]4) c8- | c4 =B4 c4 | [_Ac]8 [Fcf]4 | e2 f2 d6 c2 | %59
 c4 [ce]8 | [ce]4 [Bd]6 [ce]2 | c4 [Af]4 [Bd]4 | [Bc]8 [Be]4 | d2 e2 [Ac]6 B2 | B8 f4- | f4 e8- | %66
 e4 d8- | d4 (d8 | c4) B8 | [CA]4 [df]4- [df][ce][Bd][Ac] | [GB]4 [ce]4- [ce][Bd][Ac][GB] | %71
 F4 [Bd]6 [ce]2 | [Ac]4 z4 z4 | [eg]4- [eg][df][ce][Bd] [Ac]4 | [df]4- [df][ce][Bd][Ac] B4 | %75
 B4 e8- | edcB A4 d4- | d2 c2 (c2 B2) (B3 A) | A8 [DB]4 | [GB]4 z4 [EA]4 | B4 e8- | e6 f2 d4 | %82
 c2 B2 A6 B2 | B12 || %84
V:4
 z4 D8 | F8 B4 | B4 A8 | x4 x4 B4 | B8 F4 | F4 G4 B4 | F8 A4 | B6 A2 B2 c2 | A8 G4 | G8 C4 | %10
 F4 F8 | =E12 | x4 F8 | F8 F4 | F4 =E8 | F4 A8 | F8 F4 | A8 A4 | G8 A4 | F4 B8- | B4 A8- | A4 G8 | %22
 F4 F8- | F4 E8 | F4 G8 | C12 | B,8 G4 | E4 D8 | G4 A4 [EB]4 | [FB]4 [GB]4 [FA]4 | D4 F8- | F4 E8 | %32
 D8 =E4 | C4 A4 F4 | d4 =e4 B4 | [cf]4 [df]4 [c=e]4 | [Ac]12 | C8 F4 | F8 =E4 | F12 | C8 E4 | %41
 (D2 E2) C8 | D4 d4 B4 | G4 A8- | A4 G8- | G4 F8- | F4 E8 | D12 | G4 x4 x4 | x4 G8 | A8 c4 | %51
 B2 c2 A6 G2 | G4 E8 | x4 D6 E2 | C4 F8 | x4 E6 F2 | D8 C4 | d8 x4 | c8 =B4 | [EG]4 G8 | F12 | %61
 x4 x4 x4 | G4 F4 E4 | [GB]4 C4 F4 | D8 c4 | B12 | A12 | G8 G4 | F8 D2 E2 | x4 x4 x4 | x4 x4 x4 | %71
 x4 x4 x4 | x4 x4 x4 | x4 x4 x4 | x4 x4 x4 | G8 G4 | F4- FGFE D4 | E4 G8 | E8 x4 | x4 x4 x4 | %80
 D4 B4 G4 | A4 F4 B4 | G4 C4 F4 | D12 || %84
V:5
 B,,8 B,4 | A,8 G,4 | F,8 F,,4 | B,,8 D,4 | G,8 A,4 | B,8 G,4 | A,8 D,4 | G,4 C,8 | F,8 =E,4 | %9
 D,8 =E,4 | F,4 B,,8 | C,4 A,,8 | D,4 A,,8 | B,,8- C,4 | C,8 C,,4 | F,,4 E,8 | D,8 B,,4 | F,8 D,4 | %18
 E,8 C,4 | D,4 E,8 | F,8 D,4 | E,8 C,4 | D,8 D,4 | E,8 C,4 | D,4 E,8 | F,8 F,,4 | G,,8 E,,4 | %27
 F,,4 B,,4 G,,4 | E,4 F,4 G,4 | D,4 E,4 F,4 | B,,8 D,4 | G,4 A,8 | B,8 G,4 | =E,4 F,4 D,4 | %34
 B,,4 C,4 D,4 | A,,4 B,,4 C,4 | F,,8 F,4 | =E,8 D,4 | C,8 C,4 | D,8 D,4 | E,8 G,4 | F,8 F,,4 | %42
 B,,8 G,,4 | E,4 C,8 | G,8 C,4 | D,8 G,,4 | C,8 A,4 | ^F,4 G,4 =F,4 | z4 C8 | [D,C]4 [G,B,]4 E,4 | %50
 C,8 E,4 | D,8 D,,4 | G,,8 G,4 | A,4 B,8 | F,8 D,4 | =B,,4 C,8 | G,,8 E,4 | F,8 _A,4 | G,8 G,,4 | %59
 C,8 B,,4 | A,,4 B,,8 | F,4"^t" D,4 G,4 | E,4 F,4 G,4 | E,4 F,4 F,,4 | B,,8 A,4 | G,8 C,4 | %66
 F,8 B,,4 | E,8 C,4 | D,8 B,,4 | F,8 D,4 | E,8 C,4 | D,8 B,,4 | F,8 B,,4 | E,4 C,8 | D,4 B,,4 D,4 | %75
 E,6 C,2 C,2 B,,2 | A,,4 A,4 B,4 | G,4 E,8 | F,8 G,4 | E,4 F,4 F,,4 | B,,4 G,4 C4 | F,4 D,4 G,4 | %82
 E,4 F,4 F,,4 | B,,12 || %84
V:6
 x12 | x12 | x12 | x12 | x12 | x12 | x12 | x12 | x12 | x12 | x12 | x12 | x12 | x12 | x12 | x12 | %16
 x12 | x12 | x12 | x12 | x12 | x12 | x12 | x12 | x12 | x12 | x12 | x12 | x12 | x12 | x12 | x12 | %32
 x12 | x12 | x12 | x12 | x12 | x12 | x12 | x12 | x12 | x12 | x12 | x12 | x12 | x12 | x4 x4 x4 | %47
 x4 x4 x4 | E,8 C,4 | x4 x4 x4 | x4 x4 x4 | x4 x4 x4 | x4 x4 x4 | x4 x4 x4 | x12 | x12 | x12 | %57
 x12 | x12 | x12 | x12 | x12 | x12 | x12 | x12 | x12 | x12 | x12 | x12 | x4 x4 D,,4 | E,,8 C,,4 | %71
 D,,8 B,,,4 | F,,8 x4 | x4 x4 x4 | x4 x4 x4 | x4 x4 x4 | x12 | x12 | x12 | x12 | x12 | x12 | x12 | %83
 x12 || %84
V:7
 x12 | x12 | x12 | x12 | x12 | x12 | x12 | x12 | x12 | x12 | x12 | x12 | x12 | x12 | x12 | x12 | %16
 x12 | x12 | x12 | x12 | x12 | x12 | x12 | x12 | x12 | x12 | x12 | x12 | x12 | x12 | x12 | x12 | %32
 x12 | x12 | x12 | x12 | x12 | x12 | x12 | x12 | x12 | x12 | x12 | x12 | x12 | x12 | x12 | x12 | %48
 x12 | x12 | x12 | x12 | x12 | x12 | x12 | x12 | x12 | x12 | G12 | x12 | x12 | x12 | x12 | x12 | %64
 x12 | x12 | x12 | x12 | x12 | x12 | x12 | x12 | x12 | x12 | x12 | x12 | x12 | x12 | x12 | x12 | %80
 x12 | x12 | x12 | x12 || %84

